X:1
T:Isaac Watts, 1719 (Hymn 83, Book 1) 86. 86. (C. M.).
T:E minor Oliver Holden, 1796
T:Macedonia
T:No copyright. Transcribed from The Union Harmony, 1796.
%%score [ 1 2 3 4 ]
L:1/8
M:4/4
K:G
V:1 treble nm="Treble" snm="Tr."
V:2 treble nm="Counter" snm="C."
V:3 treble-8 nm="Tenor" snm="T."
V:4 bass nm="Bass" snm="B."
V:1
 E4 G3 A | B2 A2 G2 F2 | G8 | G4 B2 e2 | B4 B4 | B8 | G4 G2 G2 | d2 d2 d2 c2 | %8
w: 1.~Not from the|dust af- flic- tions|grow,|Nor trou- bles|rise by|chance,|But we are|born to care and|
 B6"^A    sad  in -  her - i  - tance," z2 | z8 | z8 | d4 de dc | B4 B4 | B8 |] %14
w: woes,|||A sad * in- *|her- i-|tance.|
V:2
 E4 E3 F | E2 D2 D2 ^D2 | E8 | E4 E2 F2 | E4 ^D4 | E8 | E4 E2 D2 | D2 F2 G2 F2 | %8
w: 2.~As sparks break|out from burn- ing|coals,|And still are|up- wards|borne,|So grief is|roo- ted in our|
 G6"^And   man grows lip to mourn," G2 | G2 F2 E2 ^D2 | E8 | G4 G3 F | E4 ^D4 | E8 |] %14
w: souls, *|||And man grows|lip to|mourn.|
V:3
 B4 E3 F | G2 A2 B2 A2 | B8 | c4 B2 A2 | G4 F4 | E8 | B4 B2 B2 | A2 A2 G2 A2 | %8
w: 3.~Yet with my|God I leave my|cause,|And trust His|pro- mised|grace;|He rules me|by His well- known|
 B6"^Of   love  and  righteousness," z2 | z8 | z8 | B4 Be BA | G4 F4 | E8 |] %14
w: laws|||Of love * and *|right- eous-|ness.|
V:4
 E,4 E,3 B,, | E,2 F,2 G,2 F,2 | E,8 | E,4 G,2 A,2 | B,4 B,,4 | E,8 | E,4 E,2 B,,2 | %7
w: 4.~Not all the|paints that e'er I|bore|Shall spoil my|fu- ture|peace,|For death and|
 D,2 D,2 D,2 D,2 | G,6"^Than what my Father   please," E,F, | G,2 B,2 G,2 F,2 | E,8 | B,,4 G,3 A, | %12
w: hell can do no|more * *|||Than what my|
 B,4 B,,4 | E,8 |] %14
w: Fath- er|please.|

